fonts/lozegw/uni003b.svg

<?xml version="1.0" encoding="UTF-8" standalone="no"?>
<svg width="500" height="850" version="1.1" id="svg2" sodipodi:docname="uni003b.svg" inkscape:version="1.4.2 (ebf0e940, 2025-05-08)" xmlns:inkscape="http://www.inkscape.org/namespaces/inkscape" xmlns:sodipodi="http://sodipodi.sourceforge.net/DTD/sodipodi-0.dtd" xmlns="http://www.w3.org/2000/svg" xmlns:svg="http://www.w3.org/2000/svg">
    <defs id="defs2" />
    <sodipodi:namedview id="namedview2" pagecolor="#ffffff" bordercolor="#000000" borderopacity="0.25" inkscape:showpageshadow="2" inkscape:pageopacity="0.0" inkscape:pagecheckerboard="0" inkscape:deskcolor="#d1d1d1" inkscape:zoom="0.31652174" inkscape:cx="260.6456" inkscape:cy="426.51099" inkscape:window-width="1080" inkscape:window-height="675" inkscape:window-x="0" inkscape:window-y="25" inkscape:window-maximized="0" inkscape:current-layer="svg2" />
    <path id="path1" d="M 250,300 125,425 250,550 375,425 Z m 0,50 75,75 -75,75 -75,-75 z m -200,50 -25,25 25,25 25,-25 z m 200,0 -25,25 25,25 25,-25 z m 200,0 -25,25 25,25 25,-25 z" />
</svg>

<svg width="500" height="850" xmlns="http://www.w3.org/2000/svg">
    <path
        d="M 250 400 L 225 425 L 250 450 L 275 425 L 250 400 z M 450 400 L 425 425 L 450 450 L 475 425 L 450 400 z M 650 400 L 625 425 L 650 450 L 675 425 L 650 400 z "
        transform="translate(-200,0)" />
    <path
        d="M 250 300 L 125 425 L 250 550 L 375 425 L 250 300 z M 250 350 L 325 425 L 250 500 L 175 425 L 250 350 z " />
</svg>
